X: 33329
T: Quay Side, The
R: hornpipe
M: 4/4
K: Gmajor
BA|:"G"GB,DG B2 AG|"D"ADFA "D7"c2 BA|"G"GdBG "D7"FcAF|"G"GBde "D7"(3ded (3cBA|
"G"GB,DG B2 AG|"D"ADFA "D7"c2 BA|"G"GdBG "D"FAcF||1 "G"G2 G2 G2 BA:|2 "G"G2 G2 G2 (3def||
|:"G"gGBd gfe^d|"C"eEGc edcB|"Am"A^GAB cBcd|"Am7"egEA "D"GFef|
"G"gGBd "B7"gfe^d|"Em"eEGc "C"edcB|"D"Agfe "D7"(3ded (3cBA||1 "G"G2 G2 G2 (3def:|2 "G"G2 G2 G2||

